X:1
T:Take Jesus with You
T:Albert Fredericks, 1917
T:Take Jesus with You
T:Public Domain
T:Public Domain
T:Public Domain
C:Albert Fredericks, 1917
Z:Public Domain
%%score ( 1 2 ) ( 3 4 )
L:1/8
M:4/4
K:Eb
V:1 treble 
V:2 treble 
V:3 bass 
V:4 bass 
V:1
 E[EG][GB] | [EG]2 [EG]3 E[DF][DG] | E4- EE[EG][GB] | [Ac]2 [GB]3 [EG][B,F][CE] | %4
w: 1.~Take Je- sus|you, a- long the way,|sweet * com- mun- ion|each day; This “El- der|
w: 2.~Take Je- sus|you, His won- drous power|bless * and bright- en|est hour; Your cares and|
w: 3.~Take Je- sus|you, His pre- cious name|great * sal- va- tion|pro- claim; Your friend and|
w: 4.~Take Je- sus|you, and then at last,|even- * ing sha- dows|ering fast, He will sus-|
 [DF]4- [DF]E[EG][GB] | [EG]2 [EG]3 E[EG][GB] | [Ac]4- [Ac][^Fc][Fd][Fe] | %7
w: Bro- * ther” ’tis joy|know, Take Je- sus with|wher- * e’er you go.|
w: trou- * bles the Lord|know, Take Je- sus with|wher- * e’er you go.|
w: Sav- * ior to o-|show, Take Je- sus with|wher- * e’er you go.|
w: tain * you and bear|o’er The roll- ing Jor-|to * Ca- naan’s shore.|
 [GB]2 [EG]3 E [DF]>[DG] | E4- E ||"^Refrain" [DB][DFB][AB] | [Fd]>[=E^c] [Fd]3 [A=c][GB][FA] | %11
w: ||||
w: A sweet com- pan- ion-|is *|to know and|share, A bless- èd fel- low-|
w: ||||
w: ||||
 [EG]>[E^F] [EG]3 [EB][DB][EB] | [Fd]>[Fd] [Ff]3 [Fd] [Ec]>[DB] | [DB]4- [DB][DB][DF][DA] | %14
w: |||
w: ship of joy most rare; Would|you be hap- py, the Sav-|ior * know? Then take|
w: |||
w: |||
 [EG]2 [EG]3 E[EG][GB] | [Ac]4- [Ac][^Fc][Fd][Fe] | [GB]2 [EG]3 E [DF]>[DG] | E4- E2 |] %18
w: ||||
w: Him with you wher- e’er|go. * * * *|||
w: ||||
w: ||||
V:2
 E x2 | x5 E x2 | E4- EE x2 | x8 | x5 E x2 | x5 E x2 | x8 | x5 E x2 | E4- E || x3 | x8 | x8 | x8 | %13
w: with|Have|with * Him||to|you,||||||||
w: with|Will|the * dark-||doth|you||ship|this *|||||
w: with|And|to * all||thers|you||||||||
w: with|When|are * gath-||you|dan||||||||
 x8 | x5 E x2 | x8 | x5 E x2 | E4- E2 |] %18
w: |||||
w: |you||||
w: |||||
w: |||||
V:3
 [E,G,][E,B,][E,E] | [E,B,]2 [E,B,]3 [C,=A,][B,,_A,][B,,B,] | [E,G,]4- [E,G,][E,G,][E,B,][E,E] | %3
 [E,E]2 [E,E]3 [E,B,][D,B,][C,=A,] | [B,,B,]4- [B,,B,][E,G,][E,B,][E,E] | %5
 [E,B,]2 [E,B,]3 [E,G,][E,B,][E,E] | [A,E]4- [A,E][=A,E][A,D][A,C] | %7
 B,2 [B,,B,]3 [B,,G,] [B,,A,]>[B,,B,] | [E,G,]4- [E,G,] || [B,,B,][B,,B,][B,,B,] | %10
 [B,,B,]>[B,,B,] [B,,B,]3 [B,,B,][C,B,][D,B,] | [E,B,]>[E,=A,] [E,B,]3 [G,B,][F,B,][G,B,] | %12
 [F,B,]>[F,B,] [F,D]3 [F,B,] [F,=A,]>[B,,B,] | [B,,B,]4- [B,,B,][B,,B,][B,,B,][B,,B,] | %14
 [E,B,]2 [E,B,]3 [E,G,][E,B,][E,E] | [A,E]4- [A,E][=A,E][A,D][A,C] | %16
 B,2 [B,,B,]3 [B,,G,] [B,,A,]>[B,,B,] | [E,G,]4- [E,G,] x |] %18
V:4
 x3 | x8 | x8 | x8 | x8 | x8 | x8 | B,2 x6 | x5 || x3 | x8 | x8 | x8 | x8 | x8 | x8 | B,2 x6 | %17
 x6 |] %18

